lib/brands/icons/azure-devops.svg

<svg xmlns="http://www.w3.org/2000/svg" fill="none" aria-hidden="true" viewBox="0 0 48 48"><g id="azure-devops-Icon"><path id="Vector" fill="#0078D4" d="M39.9801 13.9925V33.4482L31.9901 40L19.6055 35.4856V39.96L12.5943 30.7915L33.0288 32.3895V14.8714L39.9801 13.9925ZM33.1686 14.9713L21.7029 8V12.5743L11.1761 15.6704L8.02002 19.7253V28.9338L12.5344 30.9313V19.1261L33.1686 14.9713Z"/></g></svg>

<svg xmlns="http://www.w3.org/2000/svg" fill="none" aria-hidden="true" viewBox="0 0 48 48"><path fill="#0078D4" d="M39.98 13.992v19.456L31.99 40l-12.384-4.514v4.474l-7.012-9.169L33.03 32.39V14.871l6.951-.879Zm-6.811.98L21.703 8v4.574L11.176 15.67 8.02 19.725v9.209l4.514 1.997V19.126l20.635-4.155Z"/></svg>
